Obsidian-SemiLight/actions/22s/im-google-talk.svg

<svg viewBox="0 0 22 22" xmlns="http://www.w3.org/2000/svg"><path d="m11 3c-4.4181661 0-8.000001 2.6864-8 6 0 3.2629 3.4761021 5.911687 7.800781 5.992188v4.007812c8.216421-4.7437 8.199219-7.7342 8.199219-10 0-3.3136-3.581835-6-8-6zm-3.7402344 3.0644531h3.0820314v3.0839844h-.009766c.0065.073.009766.1464031.009766.2207031 0 1.2634004-.966715 2.2988564-2.201172 2.4101564v-.892578c.745998-.1077 1.3203125-.741778 1.3203125-1.5175784 0-.075-.0090512-.1485031-.0195313-.2207031h-2.1816406zm4.3984374 0h3.082031v3.0839844h-.009765c.0065.073.009765.1464031.009765.2207031 0 1.2634004-.966714 2.2988564-2.201172 2.4101564v-.892578c.745999-.1077 1.320313-.741778 1.320313-1.5175784 0-.075-.007098-.1485031-.017578-.2207031h-2.183594z" fill="#4d4d4d"/></svg>

<svg xmlns="http://www.w3.org/2000/svg" viewBox="0 0 22 22">
  <defs id="defs3051">
    <style type="text/css" id="current-color-scheme">
      .ColorScheme-Text {
        color:#4d4d4d;
      }
      </style>
  </defs>
 <path 
     style="fill:currentColor;fill-opacity:1;stroke:none" 
     d="M 11 3 C 6.5818339 3 2.999999 5.6864 3 9 C 3 12.2629 6.4761021 14.911687 10.800781 14.992188 L 10.800781 19 C 19.017202 14.2563 19 11.2658 19 9 C 19 5.6864 15.418165 3 11 3 z M 7.2597656 6.0644531 L 10.341797 6.0644531 L 10.341797 9.1484375 L 10.332031 9.1484375 C 10.338531 9.2214375 10.341797 9.2948406 10.341797 9.3691406 C 10.341797 10.632541 9.375082 11.667997 8.140625 11.779297 L 8.140625 10.886719 C 8.886623 10.779019 9.4609375 10.144941 9.4609375 9.3691406 C 9.4609375 9.2941406 9.4518863 9.2206375 9.4414062 9.1484375 L 7.2597656 9.1484375 L 7.2597656 6.0644531 z M 11.658203 6.0644531 L 14.740234 6.0644531 L 14.740234 9.1484375 L 14.730469 9.1484375 C 14.736969 9.2214375 14.740234 9.2948406 14.740234 9.3691406 C 14.740234 10.632541 13.77352 11.667997 12.539062 11.779297 L 12.539062 10.886719 C 13.285061 10.779019 13.859375 10.144941 13.859375 9.3691406 C 13.859375 9.2941406 13.852277 9.2206375 13.841797 9.1484375 L 11.658203 9.1484375 L 11.658203 6.0644531 z "
     class="ColorScheme-Text"
     />
</svg>
